X: 37706
T: Soft May Morn
R: jig
M: 6/8
K: Gmajor
|:G|GGG GAB|d>ed T B2 B|g>fe dcB|{c}BAB {A}G2 d|
dde {e}g>fe|ede {e}d2 B|AGA B>AB|GEE E2:|
|:d|eee {e}dBd|eee {d}d2 e|gee dBd|T B2 A G2 d|
dde ede|g>fe {e}d2 e|GGB BAB|GEE E2:|

